assets/icons/Translate.svg

<svg xmlns="http://www.w3.org/2000/svg" width="48" height="48" fill="#000" xmlns:v="https://vecta.io/nano"><path d="M38 32v2H28v-2h2v-4h6v4h2zm6-22v2h-2v2h-2v2h-4v-2h-2v-2h-2v-2h4V8h-2V6h-2V4h6v2h2v4h4zm0 10v-2H22v2h-2v24h2v2h22v-2h2V20h-2zm-2 22h-4v-6H28v6h-4V32h2v-4h2v-2h2v-2h2v-2h2v2h2v2h2v2h2v4h2v10zM14 14v2h-2v2H8v-4h6zM28 4v12h-4v-4h-2v-2h-4v2h-2V8h8V6H6v2h8v4h-2v-2H8v2H6v8h2v2h4v-2h2v6h2V16h2v-2h4v2h-2v2h-2v12H4v-2H2V4h2V2h22v2h2zM12 38v2h2v2h2v2h-6v-2H8v-4H4v-2h2v-2h2v-2h4v2h2v2h2v2h-4z"/></svg>

<svg width="48" height="48" viewBox="0 0 48 48" fill="none" xmlns="http://www.w3.org/2000/svg">
<path d="M38 32V34H28V32H30V28H36V32H38Z" fill="black"/>
<path d="M44 10V12H42V14H40V16H36V14H34V12H32V10H36V8H34V6H32V4H38V6H40V10H44Z" fill="black"/>
<path d="M44 20V18H22V20H20V44H22V46H44V44H46V20H44ZM42 42H38V36H28V42H24V32H26V28H28V26H30V24H32V22H34V24H36V26H38V28H40V32H42V42Z" fill="black"/>
<path d="M14 14V16H12V18H8V14H14Z" fill="black"/>
<path d="M28 4V16H24V12H22V10H18V12H16V8H24V6H6V8H14V12H12V10H8V12H6V20H8V22H12V20H14V26H16V16H18V14H22V16H20V18H18V30H4V28H2V4H4V2H26V4H28Z" fill="black"/>
<path d="M12 38V40H14V42H16V44H10V42H8V38H4V36H6V34H8V32H12V34H14V36H16V38H12Z" fill="black"/>
</svg>
